app/dist/common/images/cirrus-logic.svg

<svg height="18" width="18" xmlns="http://www.w3.org/2000/svg"><path d="m0 0h18v18h-18z" fill="#2d53a0"/><path d="m14.963 8.44h-7.185v.374h-3.078v.372h-2.7v.373h12.951c.034-.205.046-.25.046-.468a4.057 4.057 0 0 0 -.034-.65zm-6.865 1.745h-3.066c.057.157.114.348.183.493h-2.7c.068.145.149.201.229.322h11.173l1.034-1h-6.979c.035.145.08.04.126.184zm.993 1.54h-3.123c.194.17.498.324.726.444h-2.527c.48.255.878.374 1.439.374h6.866l1.084-1.177h-4.829c.138.158.215.226.364.359zm4.953-5.086c-.664-.768-1.602-1.182-2.654-1.182-.595 0-1.156.101-1.648.373h-3.047c-.222.076-.528.22-.723.373h-2.614c-.137.118-.263.294-.389.436zm.839 1.361c-.115-.46-.383-.741-.605-1h-5.848c-.096.127-.161.16-.252.322h-2.928a2.188 2.188 0 0 0 -.361.373h-2.649c-.045.13-.08.175-.114.305z" fill="#fff"/></svg>

<!-- by TradingView --><svg width="18" height="18" xmlns="http://www.w3.org/2000/svg"><path fill="#2D53A0" d="M0 0h18v18H0z"/><path d="M14.963 8.44H7.778v.374H4.7v.372H2v.373h12.951c.034-.205.046-.25.046-.468a4.057 4.057 0 00-.034-.65zm-6.865 1.745H5.032c.057.157.114.348.183.493h-2.7c.068.145.149.201.229.322h11.173l1.034-1H7.972c.035.145.08.04.126.184zm.993 1.54H5.968c.194.17.498.324.726.444H4.167c.48.255.878.374 1.439.374h6.866l1.084-1.177H8.727c.138.158.215.226.364.359zM14.044 6.639c-.664-.768-1.602-1.182-2.654-1.182-.595 0-1.156.101-1.648.373H6.695c-.222.076-.528.22-.723.373H3.358c-.137.118-.263.294-.389.436h11.075zM14.883 8c-.115-.46-.383-.741-.605-1H8.43c-.096.127-.161.16-.252.322H5.25a2.188 2.188 0 00-.361.373H2.24c-.045.13-.08.175-.114.305h12.757z" fill="#fff"/></svg>
